dist/img/contact/telegram.svg

<svg width="32" height="32" viewBox="0 0 32 32" fill="none" xmlns="http://www.w3.org/2000/svg">
<g clip-path="url(#clip0_301_185)">
<rect width="32" height="32" rx="16" fill="#EFF5FB"/>
<g clip-path="url(#clip1_301_185)">
<path d="M8.28261 15.7694L11.9693 17.1638L13.3963 21.8146C13.4876 22.1125 13.847 22.2226 14.0856 22.0249L16.1406 20.3271C16.3561 20.1492 16.6629 20.1404 16.888 20.306L20.5946 23.0331C20.8498 23.2211 21.2113 23.0794 21.2753 22.7669L23.9906 9.53073C24.0604 9.18936 23.7295 8.90457 23.4087 9.03029L8.27829 14.9455C7.9049 15.0914 7.90815 15.6272 8.28261 15.7694ZM13.1663 16.4215L20.3716 11.9242C20.5011 11.8437 20.6343 12.0211 20.5231 12.1256L14.5767 17.7273C14.3677 17.9245 14.2329 18.1883 14.1947 18.4747L13.9921 19.996C13.9653 20.1991 13.6837 20.2193 13.6284 20.0227L12.8494 17.2486C12.7602 16.9322 12.8902 16.5943 13.1663 16.4215Z" fill="#333333"/>
</g>
</g>
<defs>
<clipPath id="clip0_301_185">
<rect width="32" height="32" fill="white"/>
</clipPath>
<clipPath id="clip1_301_185">
<rect width="16" height="14" fill="white" transform="translate(8 9)"/>
</clipPath>
</defs>
</svg>

<svg width="32" height="32" fill="none" xmlns="http://www.w3.org/2000/svg"><g clip-path="url(#clip0_301_185)"><rect width="32" height="32" rx="16" fill="#EFF5FB"/><g clip-path="url(#clip1_301_185)"><path d="M8.283 15.77l3.686 1.394 1.427 4.65a.431.431 0 00.69.21l2.055-1.697a.607.607 0 01.747-.021l3.707 2.727a.433.433 0 00.68-.266L23.991 9.53a.437.437 0 00-.582-.5l-15.13 5.914a.443.443 0 00.004.824zm4.883.652l7.206-4.498c.13-.08.262.097.151.202l-5.946 5.601a1.255 1.255 0 00-.382.748l-.203 1.521c-.027.203-.308.223-.364.027l-.779-2.774a.74.74 0 01.317-.827z" fill="#333"/></g></g><defs><clipPath id="clip0_301_185"><path fill="#fff" d="M0 0h32v32H0z"/></clipPath><clipPath id="clip1_301_185"><path fill="#fff" transform="translate(8 9)" d="M0 0h16v14H0z"/></clipPath></defs></svg>
